X: 1
T: Would The Minister Not Dance?
R: Slip Jig
M: 9/8
L: 1/8
K: Amix
|: AAA A2 f ecB | AAA ece f2 e | AAA A2 f ecA | BBB Bce f2 e:|
a2 f ece ecA | a2 f ece f2 e | a2 f ece ecA | BBB Bce f2 e |
a2 f ece ecA | a2 f ece f2 e | a2 e f/g/af ecA | BBB Bce f2 e ||